X:194
T: Das boese Stiefmuetterlein
N: Q1119A
O: Mitteleuropa, Deutschland (DDR) , Sachsen
N: Melodievergleich zu Q0119, anderes Lied.
R: Ballade
M: 3/4
L: 1/8
K: G
D | GDG2B2 | AGA2z
D | ADA2d2 | ^ced2z
d | Bdc2zc | AcB2z
G | GBd2B2 | A2G2z
d | Bdc2zc | AcB2z
G | GBd2B2 | A2G2z

